!!!ONB: MCCC : IJB0010_02 : Extracted Monophonic Melody
!!!COM: Brahms, Johannes
!!!OPR: Cello Sonata No.1
!!!OMV: 2
!!!SCT: Op.38
!!!ODT: 1862///
**kern
*staff1
*clefF4
*k[]
*C:
*M3/4
4E
=2
4.A
8B
8c
8A
=3
4G#
4e
4e
=4
4.A
8B
8c
8A
=5
4B
4f
4f
=6
4.c
8d
8e
8g
=7
4.g
8f#
8g
8e
=8
4.d
8c
8d
8B
=9
8A
8B
4G
4F
=10
2E
8c
8B
=11
8A
8B
4G
4F
=12
2E
8FF
8EE
=13
2EE
8FF
8EE
=14
2EE
8f
8e
=15
8d
8e
4c
4B
=16
8A
8F
8E
8C
4AA
=17
8B
8F
8E
8BB
4EE
=18
8A
8F
8E
8C
4AA
=19
8d
8G#
8G
8D
4GG
=20
8c
8A
8G
8E
4C
=21
8e
8B
4c
4B
=22
8B
8F#
4G
4F#
=23
4F#
4G
4A
=24
4c
4B
4E
=25
4F#
4G
4A
=26
4c
4B
4A
=27
4c
4B
4A
=28
4c
4B
4r
=29
4r
4r
4E
=30
4.G
8A
8B-
8G
=31
4G
4F#
4F#
=32
4.F
8G
8G#
8F
=33
4F
4E
4E
=34
4.E-
8G
8c
8e-
=35
4g
4d
4d
=36
8EE-
8GG
8C
8E-
8G
8e-
=37
4g
4d
4d
=38
4r
4r
4g
=39
4f#
4f
4e
=40
32e-
16.f
8r
8e-
8d
4e-
=41
4d
4G
4G
=42
2G
4cc
=43
4b
4b-
4a
=44
32g#
16.b-
8r
8g#
8f##
4g#
=45
4g
4c
4G#
=46
2G
4GG
=47
8GG
8AA
4FF
4EE
=48
2DD
4D
=49
8C
8D
4BB-
4AA
=50
2GG
4G
=51
2FF
4F
=52
2EE
4E
=53
2FF#
4F#
=54
2GG
4FF
=55
2EE
4FF#
=56
4GG
4FF
4EE
=57
4GG
4FF
4EE
=58
4EE
4r
4r
=59
4r
4r
4E
=60
4.A
8B
8c
8A
=61
4G#
4e
4e
=62
4.A
8B
8c
8A
=63
4B
4f
4f
=64
4.c
8d
8e
8g
=65
4.g
8f#
8g
8c
=66
4.g
8f#
8g
8c#
=67
8d
8e
4c
4B
=68
2A
8g
8f
=69
8e
8f
4c
4B
=70
4A
8a
8g
8f
8e
=71
8d
8e
4c#
8c
8d
=72
4B
8B-
8d
4A
=73
4F
4r
4E
=74
4r
4G#
4r
=75
*M1/4
8.A
16r
=76
*M2/4
4r
4G#
=77
4A
4r
=78
*M1/4
4r
=79
*M3/4
2.r
=80
4r
4r
8d
8c#
=81
8B#
8c#
8B
8A
8G#
8F#
=82
8E
8F
8G#
8B
8e
8d
=83
8c#
8d
8c#
8B
8A
8G#
=84
8E#
8F#
8A
8c#
8g#
8f#
=85
8e#
8f#
8g#
8f#
8e#
8f#
=86
8g#
8f#
8e#
8f#
8g#
8f#
=87
8e#
8f#
8f
8e-
8c#
8B
=88
8A
8B-
8c
8c#
8B
8G#
=89
8E#
8F#
8G#
8A
8d
8c#
=90
8B#
8c#
4r
8d
8c#
=91
8B#
8c#
4r
8d
8c#
=92
8B#
8c#
8B
8A
8G#
8F#
=93
8E
8F
8G#
8B
8e
8d
=94
8c#
8d
8c#
8B
8A
8G#
=95
8E#
8F#
8A
8c#
8g#
8f#
=96
8e#
8f#
8g#
8f#
8e#
8f#
=97
8g#
8f#
8e#
8f#
8g#
8f#
=98
8e#
8f#
8f
8e-
8c#
8B
=99
8A
8B-
8c
8c#
8B
8G#
=100
8E#
8F#
8G#
8A
8d
8c#
=101
8B#
8c#
4r
8d
8c#
=102
8B#
8c#
4r
8d
8c#
=103
8B#
8c#
8B
8A
8G#
8F#
=104
8E
8F
8G#
8B
8e
8d
=105
8c#
8d
8c#
8B
8A
8G#
=106
8G#
8A
8c#
8e
8b
8a
=107
8g#
8a
8b
8a
8g#
8a
=108
8b
8a
8g#
8a
8b
8a
=109
8g#
8a
8g#
8f#
8e
8d
=110
8c
8c#
8B
8A
8G#
8F#
=111
8E#
8G#
8B
8c#
8e
8d
=112
8c
8c#
4r
4r
=113
8CC#
8GG#
8C#
8F
8G#
8c#
=114
8d
8c#
8B#
8c#
8e
8d
=115
8c#
8d
8g
8f
8e
8f
=116
8a
8e
8c#
8A
12G#
12B
12A
=117
8G#
8F#
8F#
8A
8c
8c#
=118
8d
8c#
8B#
8c#
8e
8d
=119
8c#
8d
8g
8f
8e
8f
=120
8a
8e
8c#
8A
12G#
12B
12A
=121
8G#
8F#
4F#
8d
8c#
=122
8B#
8c#
8B
8A
8G#
8F#
=123
8E
8F
8G#
8B
8e
8d
=124
8c#
8d
8c#
8B
8A
8G#
=125
8G#
8A
8c#
8e
8b
8a
=126
8g#
8a
8b
8a
8g#
8a
=127
8b
8a
8g#
8a
8b
8a
=128
8g#
8a
8g#
8f#
8e
8d
=129
8c
8c#
8B
8A
8G#
8F#
=130
8E#
8G#
8B
8c#
8e
8d
=131
8c
8c#
4r
4r
=132
8CC#
8GG#
8C#
8F
8G#
8c#
=133
8d
8c#
8B#
8c#
8e
8d
=134
8c#
8d
8g
8f
8e
8f
=135
8a
8e
8c#
8A
12G#
12B
12A
=136
8G#
8F#
8F#
8A
8c
8c#
=137
8d
8c#
8B#
8c#
8e
8d
=138
8c#
8d
8g
8f
8e
8f
=139
8a
8e
8c#
8A
12G#
12B
12A
=140
8G#
8F#
4F#
12E
12G
12F#
=141
8E
8D
4D
12C#
12E
12D
=142
8C#
4BB
8AA
8GG#
8AA
=143
4GG#
2FF#
=144
4FF#
2FF[
=145
4FF]
2EE
=146
2.r
=147
*M2/4
2r
=148
*M1/4
4r
=149
*M3/4
4r
4r
4E
=150
4.A
8B
8c
8A
=151
4G#
4e
4e
=152
4.A
8B
8c
8A
=153
4B
4f
4f
=154
4.c
8d
8e
8g
=155
4.g
8f#
8g
8e
=156
4.d
8c
8d
8B
=157
8A
8B
4G
4F
=158
2E
8c
8B
=159
8A
8B
4G
4F
=160
2E
8FF
8EE
=161
2EE
8FF
8EE
=162
2EE
8f
8e
=163
8d
8e
4c
4B
=164
8A
8F
8E
8C
4AA
=165
8B
8F
8E
8BB
4EE
=166
8A
8F
8E
8C
4AA
=167
8d
8G#
8G
8D
4GG
=168
8c
8A
8G
8E
4C
=169
8e
8B
4c
4B
=170
8B
8F#
4G
4F#
=171
4F#
4G
4A
=172
4c
4B
4E
=173
4F#
4G
4A
=174
4c
4B
4A
=175
4c
4B
4A
=176
4c
4B
4r
=177
4r
4r
4E
=178
4.G
8A
8B-
8G
=179
4G
4F#
4F#
=180
4.F
8G
8G#
8F
=181
4F
4E
4E
=182
4.E-
8G
8c
8e-
=183
4g
4d
4d
=184
8EE-
8GG
8C
8E-
8G
8e-
=185
4g
4d
4d
=186
4r
4r
4g
=187
4f#
4f
4e
=188
32e-
16.f
8r
8e-
8d
4e-
=189
4d
4G
4G
=190
2G
4cc
=191
4b
4b-
4a
=192
32g#
16.b-
8r
8g#
8f##
4g#
=193
4g
4c
4G#
=194
2G
4GG
=195
8GG
8AA
4FF
4EE
=196
2DD
4D
=197
8C
8D
4BB-
4AA
=198
2GG
4G
=199
2FF
4F
=200
2EE
4E
=201
2FF#
4F#
=202
2GG
4FF
=203
2EE
4FF#
=204
4GG
4FF
4EE
=205
4GG
4FF
4EE
=206
4EE
4r
4r
=207
4r
4r
4E
=208
4.A
8B
8c
8A
=209
4G#
4e
4e
=210
4.A
8B
8c
8A
=211
4B
4f
4f
=212
4.c
8d
8e
8g
=213
4.g
8f#
8g
8c
=214
4.g
8f#
8g
8c#
=215
8d
8e
4c
4B
=216
2A
8g
8f
=217
8e
8f
4c
4B
=218
4A
8a
8g
8f
8e
=219
8d
8e
4c#
8c
8d
=220
4B
8B-
8d
4A
=221
4F
4r
4E
=222
4r
4G#
4r
=223
*M1/4
8.A
16r
=224
*M2/4
4r
4G#
=225
4A
4r
==
*-
